X:1
T:Eichendorff-Lieder
T:Heimweh
T:Eichendorff-Lieder
T:12. Heimweh
T:Hugo Wolf
T:Joseph von Eichendorff
T:OpenScore (CC0)
T:OpenScore (CC0)
T:OpenScore (CC0)
T:OpenScore (CC0)
T:OpenScore (CC0)
T:OpenScore (CC0)
C:Hugo Wolf
Z:Joseph von Eichendorff
Z:OpenScore (CC0)
%%score 1 { 2 | ( 3 4 ) }
L:1/8
Q:1/4=80
M:4/4
K:Eb
V:1 treble nm="Voice"
V:2 treble nm="Piano"
V:3 bass 
V:4 bass 
V:1
"^Mässig, nicht schleppend" z8 |"^sehr innig"!p! B2 B B B2 A G | G4 F2 c2 | B2 B (d/c/) B3 ^F | %4
w: |Wer in die Frem- de will|wan- dern, der|muss mit der * Lieb- sten|
w: |He with his true love must|wan- der, who|far from his * home would|
{/G} B4 z2 B2 | _d2 d d d2 d d | c4 c2 c2 | e2 e e d2 c2 | A6 z2 | z8 | z4 z2"^zart" =e2 | %11
w: gehn, es|ju- beln und las- sen die|an- dern den|Frem- den al- lei- ne|stehn.||Was|
w: roam, else|ne- ver a strang- er o'er|yond- er will|of- fer him heart and|home.||What|
 d2 G G G3 F | =E2 G2 z2 G =A | B3 B _A3 c | G4 z2 G3/2 G/ | ^F2 =B2 ^A2 B ^c | d4 ^c2 =B2 | %17
w: wis- set ihr, dunk- le|Wip- fel, von der|al- ten, schö- nen|Zeit? ach, die|Hei- mat hin- ter den|Gip- feln, wie|
w: know ye that stare and|won- der, of those|hap- py days of|yore? Ah, my|home is too far o'er|yond- er, and|
 _B2 e e e3 e | e8- |!>(! (e2!mp! d2)!>)! z4 | z4 z2 g2 | f2 B B B2 B A | G2 B2 z2 _d2 | %23
w: liegt sie von hier so|weit!|_ _|Am|lieb- sten be- tracht' ich die|Ster- ne, die|
w: I shall re- turn no|more!|_ _|I|gaze toward the stars up in|Heav- en, they|
 c c c c c3 =d | =e4 z2"^heimlich" c2 | _c3/2 _f/ f2 f2 _e d | e4 B2 B2 | _c2 _f e =d3 d | e6 z2 | %29
w: schie- nen, wie ich ging zu|ihr, die|Nach- ti- gall hör' ich so|ger- ne, sie|sang vor der Lieb- sten|Tür.|
w: shone when last I saw my|love, the|night- in- gale's soft, plead- ing|stev- en told|fond- ly of con- stant|love.|
 z8 | z4 z2 z"^kräftig"!mp! B | B2 B B B2 A G | G2 F2 z2 c2 | B2 B c (d2 e) f | g6 f e | %35
w: |Der|Mor- gen, das ist mei- ne|Freu- de! Da|steig' ich in stil- * ler|Stund' auf den|
w: |Each|morn- ing, that dawns, bring- eth|glad- ness! I|rise with the sun _ to|roam, from the|
 a3 a g2 g g | _g3 g f2 e2 | =g4 e2 G2 | c4- c (!fermata!D2 E) | E4 z4 | z8 | z8 |[K:Eb] z8 | z8 | %44
w: höch- sten Berg in die|Wei- te, grüss dich,|Deutsch- land, aus|Her- * zens- *|grund!|||||
w: hills, my heart, filled with|sad- ness, longs to|greet thee, my|di- * stant *|home!|||||
 z8 | z8 |] %46
w: ||
w: ||
V:2
!p! [GB]>([GB] g2) [GB]>([GB] g2) | [GB]>([GB] g2) [GB]>([GB] g2) | [Ac]>([Ac] a2) [Ac]>([Ac] a2) | %3
 [Af]>([Af] b2) [Af]>([Af] b2) | [GB]>([GB] g2) [GB]>([GB] g2) | [GB]>([GB] g2) [GB]>([GB] g2) | %6
!<(! [Bc]>([Bc] b2) [Ac]>([Ac] a2)!<)! | [Ac]>([Ac] a2)!>(! [Ac]>([Ac] a2) | %8
 [ce]>([ce] c'2) [ce]>([ce] c'2) | [cf]>([cf] c'2) [=Bf]>([Bf] =b2)!>)! | %10
!pp! [=eg]>([eg] =e'2) [eg]>([eg] e'2) | [f=a]>([fa] f'2) [g=b]>([gb] f'2) | %12
 [=eg]>([eg] =e'2) [eg]>([eg] e'2) | [=eg]>([eg] =e'2) [fa]>([fa] f'2) | %14
 [=eg]>([eg] =e'2) [eg]>([eg] e'2) |!<(! [^f=b]>([fb] ^f'2) [f^c']>([fc'] f'2)!<)! | %16
!mf!!>(! [^f=b]>([fb] ^f'2) [=fb]>([fb] =f'2)!>)! |!p!!<(! [g_b]>([gb] g'2) [e=a]>([ea] _g'2)!<)! | %18
!mf!!8va(! [_ae']>([ae'] b'2)!>(! [ae']>([ae'] b'2) | %19
!>(! [ae']>([ae'] b'2)!>)! [ad']>([ad'] b'2)!8va)!!>)! |!p! [GB]>([GB] g2) [GB]>([GB] g2) | %21
 [Af]>([Af] b2) [Af]>([Af] b2) | [GB]>([GB] g2) [GB]>([GB] g2) | %23
 [Ac]>([Ac] a2)"_dim." [Ac]>([Ac] a2) |!pp! [Bc]>([Bc] b2) [Bc]>([Bc] b2) | %25
 [_c_f]>([cf] _c'2) [cf]>([cf] c'2) | [Be]>([Be] b2) [Be]>([Be] b2) | %27
 [_c_f]>([cf] _c'2) [cf]>([cf] c'2) | [Be]>([Be] b2)!8va(! [be']>([be'] b'2)!8va)! | %29
 [Be]>([Be] b2)!8va(! [ad']>([ad'] b'2)!8va)! |!f! [GB]>([GB] g2) [GB]>([GB] g2) | %31
!p! [GB]>([GB] g2) [GB]>([GB] g2) | [Ac]>([Ac] a2) [Ac]>([Ac] a2) | %33
!<(! [Af]>([Af] b2) [Af]>([Af] b2)!<)! |!mf!"_cresc." [G_d]>([Gd] b2) [Ge]>([Ge] b2) | %35
!f! [Ae]>([Ae] c'2) [B=e]>([Be] c'2) |!<(! [=A_e]>([Ae] c'2) [Ae]>([Ae] e'2)!<)! | %37
!ff! [Geg]>([eg] e'2) [Beb]>!8va(!([be'] b'2)!8va)! | %38
!f! [CEA]3/2!>(! ((c-<[ceac']))!8va(! (c'/[e'a'c''])!>)!!8va)! z!p! !arpeggio!!fermata![B,DB] z | %39
!ff! [Begb]>[Bb] ([gg']2- [gg'] [ff']2 [dd']) | [Begb]>[Bb] ([gg']2- [gg'] [ff']2 [dd']) | %41
 [Begb][Bb]!8va(! [=ae'^f'=a']>[bb'] [bb']b [ae'f'a']>[bb'] | %42
[K:Eb] [bb']b [=ae'^f'=a']>[bb'] [bb']b [ae'f'a']>[bb'] | %43
 [bb']!8va)! [Bb] [gg']2- [gg'] [ff']2 [ee']-!fff! | [ee'][cc'][Bb][Gg] [Ff][Ee][Cc][B,B] | %45
 [EGBe] z z2 z4 |] %46
V:3
 B, (B,2 G,) B, (B,2 G,) | B, (B,2 G,) B, (B,2 G,) | C (C2 A,) C (C2 A,) | D (D2 B,) D (D2 B,) | %4
 B, (B,2 G,) B, (B,2 G,) | B, (B,2 G,) B, (B,2 G,) | C (C2 G,) F (F2 C) | ^F (F2 C) F (F2 C) | %8
 A (A2 E) A (A2 E) | A (A2 D) G (G2 D) |[K:treble] c (c2 G) c (c2 G) | c (c2 G) d (d2 G) | %12
 c (c2 G) c (c2 G) | c (c2 G) c (c2 F) | c (c2 G) c (c2 G) | ^d (d2 ^F) =e (e2 F) | %16
 =d (d2 ^F) d (d2 _A) | _B (B2 E) _c (c2 _G) | B (B2 F) B (B2 F) | B (B2 F) B (B2 F) | %20
[K:bass] B, (B,2 G,) B, (B,2 G,) | D (D2 B,) D (D2 B,) | E (E2 B,) E (E2 B,) | E (E2 C) E (E2 C) | %24
 =E (E2 C) E (E2 C) | A (A2 _F) A (A2 F) | E (E2 B,) E (E2 B,) | A (A2 _F) A (A2 F) | %28
 E (E2 B,) E (E2 B,) | E (E2 A,) D (D2 B,) | B, (B,2 G,) B, (B,2 G,) | B, (B,2 G,) B, (B,2 G,) | %32
 C (C2 A,) C (C2 A,) | D (D2 B,) D (D2 B,) | E (E2 B,) E (E2 B,) | E ([CE]2 A,) =E ([CE]2 G,) | %36
 _E ([CE]2 _G,) E ([_CE]2 G,) | [B,,E,=G,B,] ([EG]2 B,) [G,,E,G,] ([B,EG]2 G,) | %38
 [B,,F,][K:treble] [B,F]2 [Bf]-[Bf] z[K:bass] !fermata![B,,F,A,] z | x6 DF | x6 DF | %41
 [E,,B,,E,] [E,B,E][K:treble] z [E^Fc]2 [EGBe]2 [EFc]- | %42
[K:Eb] [E^Fc] [EGBe]2 [EFc]2 [EGBe]2 [EFc] | [EGBe][K:bass] [B,,B,] [G,G]2- [G,G] [F,F]2 [E,E]- | %44
 [E,E][C,C][B,,B,][G,,G,] [F,,F,][E,,E,][C,,C,][B,,,B,,] | [E,,B,,E,] z z2 z4 |] %46
V:4
 E, E,3 E, E,3 | E, E,3 E, E,3 | E, E,3 E, E,3 | E, E,3 E, E,3 | E, E,3 E, E,3 | E, E,3 E, E,3 | %6
 =E, E,3 F, F,3 | ^F, F,3 F, F,3 | G, G,3 G, G,3 | G, G,3 G, G,3 |[K:treble] C C3 C C3 | %11
 C C3 C C3 | C C3 C C3 | C C3 C C3 | C C3 C C3 | ^D D3 =E E3 | =D D3 D D3 | _B, B,3 _C C3 | %18
 B, B,3 B, B,3 | B, B,3 B, B,3 |[K:bass] E, E,3 E, E,3 | E, E,3 E, E,3 | E, E,3 E, E,3 | %23
 E, E,3 A, A,3 | G, G,3 G, G,3 | A, A,3 A, A,3 | G, G,3 G, G,3 | A, A,3 A, A,3 | G, G,3 G, G,3 | %29
 F, F,3 F, F,2 x | E, E,3 E, E,3 | E, E,3 E, E,3 | E, E,3 E, E,3 | E, E,3 E, E,3 | E, E,3 _D, D,3 | %35
 C,4 C,4 | C,4 _C,4 | x8 | x[K:treble] x5[K:bass] x2 | %39
 [E,,B,,E,] [E,G,B,]2 [E,G,=B,] [E,A,C]2 [E,A,_B,]2 | %40
 [E,,B,,E,] [E,G,B,]2 [E,G,=B,] [E,A,C]2 [E,A,_B,]2 | x2[K:treble] x6 |[K:Eb] x8 | x[K:bass] x7 | %44
 x8 | x8 |] %46

